svg/influxdb.svg

<svg enable-background="new -173 -143 900 900" height="900" viewBox="-173 -143 900 900" width="900" xmlns="http://www.w3.org/2000/svg"><path d="m-173-143h900v900h-900z" fill="none"/><path d="m694.1 394.9-81-352.7c-4.6-19.3-22.1-38.6-41.4-44.2l-370.2-114.2c-4.6-1.8-10.1-1.8-15.7-1.8-15.7 0-32.2 6.4-43.3 15.7l-265.2 246.8c-14.7 12.9-22.1 38.7-17.5 57.1l86.6 377.6c4.6 19.3 22.1 38.7 41.4 44.2l346.2 106.8c4.6 1.8 10.1 1.8 15.7 1.8 15.7 0 32.2-6.4 43.3-15.7l283.6-263.3c14.8-13.8 22.1-38.7 17.5-58.1zm-453.9-427.3 254.1 78.3c10.1 2.8 10.1 7.4 0 10.1l-133.5 30.4c-10.1 2.8-23.9-1.8-31.3-9.2l-93-100.4c-8.3-8.2-6.5-11.9 3.7-9.2zm158.3 455.9c2.8 10.1-3.7 15.7-13.8 12.9l-274.4-84.7c-10.1-2.8-12-11.1-4.6-18.4l210-195.3c7.4-7.4 15.7-4.6 18.4 5.5zm-452.1-248.7 222.9-207.2c7.4-7.4 19.3-6.4 26.7.9l111.4 120.7c7.4 7.4 6.4 19.3-.9 26.7l-222.9 207.2c-7.4 7.4-19.3 6.4-26.7-.9l-111.4-120.6c-7.4-8.3-6.4-20.3.9-26.8zm54.4 328.8-58.9-258.8c-2.8-10.1 1.8-12 8.3-4.6l93 100.4c7.4 7.4 10.1 22.1 7.4 32.2l-40.6 130.8c-2.8 10.1-7.4 10.1-9.2 0zm325.9 151-291-89.3c-10.1-2.8-15.7-13.8-12.9-23.9l48.8-156.6c2.8-10.1 13.8-15.7 23.9-12.9l291 89.3c10.1 2.8 15.7 13.8 12.9 23.9l-48.8 156.6c-3.6 10.2-13.7 15.7-23.9 12.9zm257.8-211.8-194.2 180.5c-7.4 7.4-11 4.6-8.3-5.5l40.5-130.8c2.8-10.1 13.8-20.3 23.9-22.1l133.5-30.4c10.2-2.7 12 1.9 4.6 8.3zm21.2-38.6-160.2 36.8c-10.1 2.8-20.3-3.7-23-13.8l-68.1-296.5c-2.8-10.1 3.7-20.3 13.8-23l160.2-36.8c10.1-2.8 20.3 3.7 23 13.8l68.1 296.5c2.8 11-3.6 21.1-13.8 23z" fill="#22adf6"/></svg>

<svg xmlns="http://www.w3.org/2000/svg" xmlns:xlink="http://www.w3.org/1999/xlink" id="InfluxData_Symbol_Only" width="900" height="900" x="0" style="enable-background:new -173 -143 900 900" y="0" version="1.1" viewBox="-173 -143 900 900" xml:space="preserve"><style type="text/css">.st0{fill:none}.st1{fill:#22adf6}</style><rect id="Background" width="900" height="900" x="-173" y="-143" class="st0"/><path id="Cuboctahedron" d="M694.1,394.9l-81-352.7C608.5,22.9,591,3.6,571.7-2L201.5-116.2c-4.6-1.8-10.1-1.8-15.7-1.8	c-15.7,0-32.2,6.4-43.3,15.7l-265.2,246.8c-14.7,12.9-22.1,38.7-17.5,57.1l86.6,377.6c4.6,19.3,22.1,38.7,41.4,44.2l346.2,106.8	c4.6,1.8,10.1,1.8,15.7,1.8c15.7,0,32.2-6.4,43.3-15.7L676.6,453C691.4,439.2,698.7,414.3,694.1,394.9z M240.2-32.4l254.1,78.3	c10.1,2.8,10.1,7.4,0,10.1L360.8,86.4c-10.1,2.8-23.9-1.8-31.3-9.2l-93-100.4C228.2-31.4,230-35.1,240.2-32.4z M398.5,423.5	c2.8,10.1-3.7,15.7-13.8,12.9l-274.4-84.7c-10.1-2.8-12-11.1-4.6-18.4L315.7,138c7.4-7.4,15.7-4.6,18.4,5.5L398.5,423.5z M-53.6,174.8L169.3-32.4c7.4-7.4,19.3-6.4,26.7,0.9L307.4,89.2c7.4,7.4,6.4,19.3-0.9,26.7L83.6,323.1c-7.4,7.4-19.3,6.4-26.7-0.9	L-54.5,201.6C-61.9,193.3-60.9,181.3-53.6,174.8z M0.8,503.6l-58.9-258.8c-2.8-10.1,1.8-12,8.3-4.6l93,100.4	c7.4,7.4,10.1,22.1,7.4,32.2L10,503.6C7.2,513.7,2.6,513.7,0.8,503.6z M326.7,654.6l-291-89.3c-10.1-2.8-15.7-13.8-12.9-23.9	l48.8-156.6c2.8-10.1,13.8-15.7,23.9-12.9l291,89.3c10.1,2.8,15.7,13.8,12.9,23.9l-48.8,156.6C347,651.9,336.9,657.4,326.7,654.6z M584.5,442.8L390.3,623.3c-7.4,7.4-11,4.6-8.3-5.5L422.5,487c2.8-10.1,13.8-20.3,23.9-22.1l133.5-30.4	C590.1,431.8,591.9,436.4,584.5,442.8z M605.7,404.2L445.5,441c-10.1,2.8-20.3-3.7-23-13.8l-68.1-296.5c-2.8-10.1,3.7-20.3,13.8-23	l160.2-36.8c10.1-2.8,20.3,3.7,23,13.8l68.1,296.5C622.3,392.2,615.9,402.3,605.7,404.2z" class="st1"/></svg>
